assets/compare/advanced.svg

<svg width="28" height="29" viewBox="0 0 28 29" fill="none" xmlns="http://www.w3.org/2000/svg">
<path d="M5.83333 4.40015V23.0668H24.5V25.4001H3.5V4.40015H5.83333ZM23.6752 8.24198L25.3248 9.89165L18.6667 16.5498L15.1667 13.051L10.1582 18.0583L8.5085 16.4086L15.1667 9.75048L18.6667 13.2493L23.6752 8.24198V8.24198Z" fill="#5BB5A2"/>
</svg>

<svg xmlns="http://www.w3.org/2000/svg" width="28" height="29" fill="none"><path fill="#5BB5A2" d="M5.833 4.4v18.667H24.5V25.4h-21v-21h2.333Zm17.842 3.842 1.65 1.65-6.658 6.658-3.5-3.499-5.009 5.007-1.65-1.65 6.659-6.658 3.5 3.5 5.008-5.008Z"/></svg>
